tools/download-figma-icons/icons/outlined-large/smoke-detector.svg

<svg width="64" height="64" viewBox="0 0 64 64" fill="none" xmlns="http://www.w3.org/2000/svg">
<path fill-rule="evenodd" clip-rule="evenodd" d="M36.745 20.9995H61V10.9995H3V20.9995H27.255C27.896 18.9785 29.77 17.4995 32 17.4995C34.23 17.4995 36.104 18.9785 36.745 20.9995ZM42.713 31.9995H48.678L52.18 23.9995H44.427L42.713 31.9995ZM19.572 23.9995H11.82L15.322 31.9995H21.287L19.572 23.9995ZM30.5 31.9995V27.2445C28.955 26.7545 27.746 25.5445 27.255 23.9995H22.641L24.355 31.9995H30.5ZM30 22.4995C30 23.6035 30.897 24.4995 32 24.4995C33.103 24.4995 34 23.6035 34 22.4995C34 21.3965 33.103 20.4995 32 20.4995C30.897 20.4995 30 21.3965 30 22.4995ZM41.358 23.9995H36.745C36.254 25.5445 35.045 26.7545 33.5 27.2445V31.9995H39.645L41.358 23.9995ZM1.5 7.99951H62.5C63.328 7.99951 64 8.67151 64 9.49951V22.4995C64 23.3285 63.328 23.9995 62.5 23.9995H55.454L51.032 34.1015C50.793 34.6475 50.254 34.9995 49.658 34.9995H14.342C13.746 34.9995 13.207 34.6475 12.968 34.1015L8.546 23.9995H1.5C0.672 23.9995 0 23.3285 0 22.4995V9.49951C0 8.67151 0.672 7.99951 1.5 7.99951ZM20.165 45.3358C19.579 44.7498 19.579 43.8008 20.165 43.2148C20.751 42.6288 21.7 42.6288 22.286 43.2148C27.642 48.5698 36.358 48.5698 41.714 43.2148C42.3 42.6288 43.249 42.6288 43.835 43.2148C44.421 43.8008 44.421 44.7498 43.835 45.3358C40.572 48.5988 36.286 50.2308 32 50.2308C27.714 50.2308 23.428 48.5988 20.165 45.3358ZM39.083 40.5811C39.668 39.9951 39.667 39.0451 39.081 38.4601C38.494 37.8741 37.545 37.8741 36.96 38.4621C35.635 39.7901 33.873 40.5211 32 40.5211C30.127 40.5211 28.365 39.7901 27.04 38.4621C26.455 37.8741 25.506 37.8751 24.919 38.4601C24.333 39.0451 24.332 39.9951 24.917 40.5811C26.809 42.4771 29.324 43.5211 32 43.5211C34.676 43.5211 37.191 42.4771 39.083 40.5811ZM32.0005 53.9998C37.4545 53.9998 42.5825 51.8718 46.4385 48.0088C47.0225 47.4208 47.9715 47.4218 48.5595 48.0068C49.1465 48.5918 49.1465 49.5418 48.5615 50.1278C44.1375 54.5598 38.2555 56.9998 32.0005 56.9998C25.7445 56.9998 19.8625 54.5598 15.4385 50.1278C14.8535 49.5418 14.8535 48.5918 15.4405 48.0068C16.0265 47.4218 16.9755 47.4218 17.5615 48.0088C21.4175 51.8718 26.5455 53.9998 32.0005 53.9998Z" fill="black"/>
</svg>

<svg xmlns="http://www.w3.org/2000/svg" width="64" height="64" fill="none" viewBox="0 0 64 64"><path fill="currentColor" fill-rule="evenodd" d="M36.745 21H61V11H3v10h24.255c.641-2.021 2.515-3.5 4.745-3.5s4.104 1.479 4.745 3.5m5.968 11h5.965l3.502-8h-7.753zm-23.141-8H11.82l3.502 8h5.965zM30.5 32v-4.756A4.99 4.99 0 0 1 27.255 24h-4.614l1.714 8zm-.5-9.5c0 1.104.897 2 2 2s2-.896 2-2-.897-2-2-2-2 .896-2 2M41.358 24h-4.613a4.99 4.99 0 0 1-3.245 3.244V32h6.145zM1.5 8h61A1.5 1.5 0 0 1 64 9.5v13a1.5 1.5 0 0 1-1.5 1.5h-7.046l-4.422 10.102a1.5 1.5 0 0 1-1.374.898H14.342a1.5 1.5 0 0 1-1.374-.898L8.546 24H1.5A1.5 1.5 0 0 1 0 22.5v-13A1.5 1.5 0 0 1 1.5 8m18.665 37.336a1.5 1.5 0 1 1 2.121-2.121c5.356 5.355 14.072 5.355 19.428 0a1.5 1.5 0 1 1 2.121 2.12A16.7 16.7 0 0 1 32 50.232a16.7 16.7 0 0 1-11.835-4.895m18.918-4.755a1.5 1.5 0 0 0-2.123-2.119 6.96 6.96 0 0 1-4.96 2.06 6.96 6.96 0 0 1-4.96-2.06 1.5 1.5 0 0 0-2.123 2.119A9.94 9.94 0 0 0 32 43.521a9.94 9.94 0 0 0 7.083-2.94M32.001 54a20.27 20.27 0 0 0 14.438-5.991 1.5 1.5 0 1 1 2.123 2.119C44.138 54.56 38.256 57 32 57s-12.138-2.44-16.562-6.872a1.5 1.5 0 1 1 2.122-2.12A20.27 20.27 0 0 0 32.002 54" clip-rule="evenodd"/></svg>
